X: 24562
T: Lumsden's Rant
R: reel
M: 4/4
K: Amajor
|:A2c2 BABc|Acfc ecBc|A2c2 BABc|aecA BABc|
A2c2 BABc|Acfc ecBc|eafe cABc|eAcB A4:|
|:a2A2 fece|Aaec fece|a2A2 fece|dcBA Bcef|
a2A2 fece|Aaec fece|faaf ecef|aAcB A4:|
|:aAce aefe|aAce fefg|aAce agfe|dcBA Bcef|
aAce aefe|aAce fece|faaf ecef|aAcB A4:|

